!!!!SEGMENT: pl-wtm--r-248-n--001_noskowski-zygmunt--serenada.krn
!!!id: 18xx:2155
!!!COM: Noskowski, Zygmunt
!!!COM-rism: pe106604
!!!CDT: 1846/05/02-1909/07/23
!!!CNT: Polish
!!!OTL: Serenada
!!!PDT:
!!!SMS-siglum: PL-Wtm
!!!SMS-shelfmark: R 248/N
!!!NIFC-rismID: 1001100241
!!!URL-scan: http://repozytorium.nifc.pl/skany/pl-wtm-nut--r248n
!!!ONB-nifc: UWAGA: w zbiorze: 1. Serenada, 2. Na wodzie
!!!SMS-variant:
!!!SMS-altvar:
!!!OMD: Andantino con moto.
**kern	**text	**text	**text	**dynam	**kern	**text	**text	**dynam
*part2	*part2	*part2	*part2	*part2	*part1	*part1	*part1	*part1
*staff2	*staff2	*staff2	*staff2	*	*staff1	*staff1	*staff1	*
*I"Basy 1ºo e 2dº	*	*	*	*	*I"Tenory 1º e 2º	*	*	*
*clefF4	*	*	*	*	*clefG2	*	*	*
*	*	*	*	*	*ITrd7c12	*	*	*
*k[b-e-a-d-]	*	*	*	*	*k[b-e-a-d-]	*	*	*
*M6/8	*	*	*	*	*M6/8	*	*	*
*^	*	*	*	*	*^	*	*	*
!	!	!	!	!	!LO:DY:b:rj	!	!	!	!	!LO:DY:b:rj
8A-/	8F\	.	.	.	p	8c/	8c\	1. Lśni	2. Us-	p
=1	=1	=1	=1	=1	=1	=1	=1	=1	=1	=1
4A-/	4F\	.	.	.	.	4c/	4c\	księ-	-tecz-	.
8F/	8AA-\	.	.	.	.	8f/	8c\	-życ	-ka	.
8F/	8BB-\	.	.	.	.	8d-/	8B-\	na	roz-	.
8F/	8D-\	.	.	.	.	8B-/	8G\	ciem-	-chyl	.
8F/	8BB-\	.	.	.	.	8d-/	8B-\	-nem	ró-	.
=2	=2	=2	=2	=2	=2	=2	=2	=2	=2	=2
8F/	8FF\	.	.	.	.	8c/	8A-\	nie-	-żo-	.
[4C/	[4AA-\	.	.	.	.	[4F/	[4F\	-bie	-we	.
8C/]	8AA-\]	.	.	.	.	8F/]	8F\]	.	.	.
8r	8ryy	.	.	.	.	8r	8ryy	.	.	.
8C/	8C\	.	.	.	.	8G/	8G\	O-	I	.
!!LO:LB:g=original
=3	=3	=3	=3	=3	=3	=3	=3	=3	=3	=3
8F/	8F\	.	.	.	.	8A-/	8A-\	-świet-	wy-	.
8C/	8C\	.	.	.	.	8G/	8G\	-la	-rok	.
8F/	8AA-\	.	.	.	.	8F/	8F\	po	mi	.
4F/	4BB-\	.	.	.	.	(8e-/L	4B-\	mro-	o-	.
.	.	.	.	.	.	8d-/J)	.	.	.	.
8F/	8D-\	.	.	.	.	8B-/	8B-\	-ków	-głoś	.
=4	=4	=4	=4	=4	=4	=4	=4	=4	=4	=4
(4.F/	(4.F\	.	.	.	.	[4.c/	(4.A-\	cień	swój	.
8En/)	8C\)	.	.	.	.	8c/]	8G\)	.	.	.
8r	8ryy	.	.	.	.	8r	8ryy	.	.	.
!	!	!	!	!	!LO:HP:b	!	!	!	!	!
8G/	8En\	.	.	.	<	8c/	8B-\	Wy-	A-	<
=5	=5	=5	=5	=5	=5	=5	=5	=5	=5	=5
4A-/	4F\	.	.	.	.	4c/	4A-\	-słu-	-niel-	.
8A-/	8F\	.	.	.	[	8f/	8c\	-chaj	-ską	[
8G/	8C\	.	.	.	.	8e-X/	8c\	ja	sły-	.
8G/	8E-X\	.	.	.	.	8c/	8c\	bła-	-szeć	.
8G/	8C\	.	.	.	.	8e-/	8c\	-gam	chcę	.
!!LO:LB:g=original
=6	=6	=6	=6	=6	=6	=6	=6	=6	=6	=6
8A-/	8F\	.	.	.	.	8d/	8dn\	cie-	mo-	.
[4F/	[4Dn\	.	.	.	.	[4A-/	[4A-\	-bie	-wę	.
8F/]	8D\]	.	.	.	.	8A-/]	8A-\]	.	.	.
8r	8ryy	.	.	.	.	8r	8ryy	.	.	.
8Dn/	8AA-\	.	.	.	.	8c/	8F\	O	W niej	.
=7	=7	=7	=7	=7	=7	=7	=7	=7	=7	=7
8E-/	8GG\	.	.	.	.	8B/	8G\	lu-	jest	.
8E-/	8C\	.	.	.	.	8c/	8G\	-ba	me-	.
8E-/	8E-\	.	.	.	.	8G/	8G\	ser-	-go	.
(8BBn/L	4GG\	.	.	.	>	(8d/L	(8F\L	-dusz-	szczęś-	>
8D-/J)	.	.	.	.	.	8c/J)	8A-\J)	.	.	.
8F/	8GG\	.	.	.	]	8Bn/	8G\	-ko	-cia	.
=8	=8	=8	=8	=8	=8	=8	=8	=8	=8	=8
(4.E-/	[4.C\	.	.	.	.	[4.c/	(4.G\	zmień	zdrój	]
4En/)	4C\]	.	.	.	.	4c/]	4B-X\)	.	.	.
!	!	!	!	!	!LO:DY:b:rj	!	!	!	!	!LO:DY:b:rj
8E/	8C\	.	.	.	mf	8d/	8B-\	O	Dwa	mf
*v	*v	*	*	*	*	*	*	*	*	*
*	*	*	*	*	*v	*v	*	*	*
!!LO:LB:g=original
=9||	=9||	=9||	=9||	=9||	=9||	=9||	=9||	=9||
*k[b-enandn]	*	*	*	*	*k[b-enandn]	*	*	*
*^	*	*	*	*	*^	*	*	*
4F/	4FF\	.	.	.	.	4c/	4A\	wyjdź	zgod-	.
8F/	8r	.	.	.	.	8d/	8A\	go-	-nych	.
8E/	4r	.	.	.	.	8c/	8G\	-łąb-	pier-	.
8C/	.	.	.	.	.	8G/	8E\	-ko	-si	.
!LO:TX:a:t=P:problem:dwie oddzielne nuty	!	!	!	!	!LO:DY:b:rj	!	!	!	!	!
8C/	8C\	O	Wes-	.	mf	8B-/	8G\	z u-	wes-	.
=10	=10	=10	=10	=10	=10	=10	=10	=10	=10	=10
8C/	4FF\	wyjdź	-tchnie-	.	.	(16A/LL	(16F\LL	-kry-	-tchnie-	.
.	.	.	.	.	.	16B-/JJ)	16G\JJ)	.	.	.
[4F/	.	.	.	.	.	[4c/	[4A\	-cia	-nia	.
.	(>16C\LL	ko-	-nia	.	.	.	.	.	.	.
.	16D\JJ)	.	.	.	.	.	.	.	.	.
8F/]	8C\	-chan-	zgo-	.	.	8c/]	8A\]	.	.	.
8r	8AA\	-ko	-dne	.	.	8r	8ryy	.	.	.
!	!	!	!	!	!LO:HP:b	!	!	!	!	!
8F/	8FF\	.	.	.	<	8c#X/	8A\	O	Po-	<
=11	=11	=11	=11	=11	=11	=11	=11	=11	=11	=11
8F/	8BB-\	.	.	.	.	8e/	8B-\	zbudź	-łącz-	.
8F/	8D\	.	.	.	[	8d/	8B-\	swe	-my	[[
8F/	8BB-\	.	.	.	.	8e/	8B-\	ser-	w mi-	.
(<8B-/L	4GG\	.	.	.	.	(8f/L	(8d\L	-dusz-	-łoś-	.
8D/J)	.	.	.	.	.	8d/J)	8F\J)	.	.	.
8F/	8GG\	.	.	.	.	8d/	8B-\	-ko	-ci	.
!!LO:LB:g=original
=12	=12	=12	=12	=12	=12	=12	=12	=12	=12	=12
*	*	*	*	*	*	*	*	*^	*^	*
*	*	*	*	*	*	*	*	*above	*	*above	*	*
!LO:TX:a:t=P:problem:decrescendo na pięciolinii	!	!	!	!	!	!	!	!	!	!	!	!
[4.E/	(4.GG#X\	zbudź	tej	.	>	[4.e/	4B\	zbudź	zbudz	tej	tej	.
.	.	.	.	.	.	.	(>16c\LL	.	ser-	.	w mi-	>
.	.	.	.	.	.	.	16d\JJ)	.	.	.	.	.
8E/]	8AA\)	.	.	.	]	8e/]	8c\	.	-dusz-	.	-łoś-	]
8r	4ryy	.	.	.	.	8rff	8B\	.	-ko	.	-ci	.
!	!	!	!	!	!	!	!	!	!	!	!	!LO:DY:rj
8r	.	.	.	.	.	8c/	8A\	.	Daj	.	Niech	mf
*	*	*	*	*	*	*	*	*v	*v	*	*	*
*	*	*	*	*	*	*	*	*	*v	*v	*
=13	=13	=13	=13	=13	=13	=13	=13	=13	=13	=13
*	*	*	*^	*	*	*	*	*	*	*
4rG	4rGG	.	.	.	.	.	4f/	4A\	mi	zgi-	.
!	!	!	!	!	!	!LO:DY:rj	!	!	!	!	!
*	*	*	*above	*	*	*	*	*	*	*	*
8E-X/	8rGG	niech	za-	.	.	mf	8c/	8A\	za-	-ną	.
8D/	4r	łzy	-chę-	.	.	.	8f/	8B-X\	-chę-	łzy	.
8F/	.	i	-tę	.	.	.	8d/	8B-\	-tę	i	.
!	!	!	!	!	!	!LO:DY:b:rj	!	!	!	!	!
*	*	*	*	*below	*	*	*	*	*	*	*
8D/	8BB-\	cier-	do	do	.	mf	8B-/	8F\	do	cier-	.
*	*	*	*v	*v	*	*	*	*	*	*	*
=14	=14	=14	=14	=14	=14	=14	=14	=14	=14	=14
*	*	*	*below	*	*	*	*	*	*	*
8En/	8GG\	-pie-	ży-	.	.	8d/	8B-\	ży-	-pie-	.
[4F/	[4AA\	-nia	-cia	.	.	[4c/	[4A\	-cia	-nia	.
8F/]	8AA\]	.	.	.	.	8c/]	8A\]	.	.	.
8r	8ryy	.	.	.	.	8r	8ryy	.	.	.
8C/	8AA\	.	.	.	.	8A/	8F\	Ja	O	.
!!LO:PB:g=original
=15	=15	=15	=15	=15	=15	=15	=15	=15	=15	=15
8D/	8BB-\	.	.	.	.	8G/	8F\	cze-	lu-	.
8C/	8C\	.	.	.	.	8A/	8F\	-kam	-ba	.
8F/	8D\	.	.	.	.	8B-/	8G\	więc	po-	.
4G/	4C\	.	.	.	.	(8e/L	4B-\	do	-ko-	.
.	.	.	.	.	.	8d/J)	.	.	.	.
8E/	8C\	.	.	.	.	8G/	8G\	mnie	-chać	.
=16	=16	=16	=16	=16	=16	=16	=16	=16	=16	=16
(4.E/	(4.C#X\	.	.	.	.	[4.A/	(4.G\	pójdź,	chciej,	.
4F/)	4D\)	.	.	.	.	4A/]	4F\)	.	.	.
8F/	8D\	.	.	.	.	8A/	8A\	Daj	Niech	.
=17	=17	=17	=17	=17	=17	=17	=17	=17	=17	=17
4E-X/	4C\	.	.	.	.	4c/	4A\	mi	zgi-	.
!	!	!	!	!	!LO:HP:b:t=cresc	!	!	!	!	!LO:HP:t=cresc
8F/	8F\	.	.	.	<	8F/	8F\	za-	-ną	<
8F/	8AA\	.	.	.	.	8e-X/	8c\	-chę-	łzy	.
8F/	8BB-\	.	.	.	.	8d/	8B-\	-tę	i	.
8F/	8E-X\	.	.	.	.	8c/	8A\	do	cier-	.
!!LO:LB:g=original
=18	=18	=18	=18	=18	=18	=18	=18	=18	=18	=18
4.F/	4.D\	.	.	.	.	(4d/	4.B-\	ży-	-pie-	.
.	.	.	.	.	.	8f/)	.	.	.	.
4F/	4GG\	.	.	.	.	4d/	4B-\	-cia	-nia	.
!	!	!	!	!	!LO:DY:b:rj	!	!	!	!	!LO:DY:rj
8F/	8D\	.	.	.	f	8B-/	8G\	Ja	O	f
=19	=19	=19	=19	=19	=19	=19	=19	=19	=19	=19
8F/	8C\	.	.	.	.	8c/	8A\	cze-	lu-	.
8F/	8F\	.	.	.	.	8A/	8A\	-kam	-ba	.
8A/	8C\	.	.	.	.	8f/	8c\	więc	po-	.
4G/	4C\	.	.	.	.	(8d/L	4B-\	do	-ko-	.
.	.	.	.	.	.	8e/J)	.	.	.	.
8E;/	8C;\	.	.	.	.	8g;/	8B-;\	mnie	-chać	.
=20	=20	=20	=20	=20	=20	=20	=20	=20	=20	=20
!	!LO:TX:a:t=P:problem:dwie oddzielne nuty	!	!	!	!	!	!	!	!	!
[4.F/	8F\	.	.	.	.	[4.f/	[4.A\	pójdź.	chciej	.
.	8D\	la	.	.	.	.	.	.	.	.
!	!	!	!	!	!LO:HP:b	!	!	!	!	!
.	(>16C\LL	la	.	.	>	.	.	.	.	.
.	16AA\JJ)	.	.	.	.	.	.	.	.	.
4F/]	8FF\	la	.	.	.	4f/]	4A\]	.	.	.
.	8AA\	la	.	.	.	.	.	.	.	.
8r	8BB-\	la	.	.	]	8r	8ryy	.	.	.
!!LO:LB:g=original
=21	=21	=21	=21	=21	=21	=21	=21	=21	=21	=21
*	*	*	*	*	*	*	*	*^	*	*
*	*	*	*	*	*	*	*	*above	*below	*	*
!	!	!	!	!	!LO:DY:b:rj	!	!	!	!	!	!LO:DY:b:rj
8E/	8C\	.	.	.	p	8c/	8B-\	la	la	.	p
8r	8ryy	.	.	.	.	(<16c/LL	8rd	la	.	.	.
.	.	.	.	.	.	16d/JJ)	.	.	.	.	.
8E/	8C\	.	.	.	.	8c/	8B-\	la	la	.	.
8E/	8C\	.	.	.	.	16d/LL	8B-\	la	la	.	.
.	.	.	.	.	.	16c/JJ	.	.	.	.	.
8r	8ryy	.	.	.	.	8d/	8rd	la	.	.	.
8E/	8C\	.	.	.	.	8d/	8B-\	la	la	.	.
=22	=22	=22	=22	=22	=22	=22	=22	=22	=22	=22	=22
8F/	8FF\	.	.	.	.	(<16c/LL	8A\	la	la	.	.
.	.	.	.	.	.	16f/JJ)	.	.	.	.	.
8r	8r	.	.	.	.	4c/	8rd	la	.	.	.
*	*	*above	*	*	*	*	*	*	*	*	*
(16F/LL	(16AA\LL	la	.	.	.	.	8r	.	.	.	.
16G/JJ)	16C\JJ)	.	.	.	.	.	.	.	.	.	.
8A/	8F\	la	.	.	.	4r	4.ryy	.	.	.	.
8G/	8C\	la	.	.	.	.	.	.	.	.	.
8F/	8AA\	la	.	.	.	8r	.	.	.	.	.
*	*	*	*	*	*	*	*	*v	*v	*	*
=23	=23	=23	=23	=23	=23	=23	=23	=23	=23	=23
8E/	8C\	la	.	.	.	8B-/	8G\	la	.	.
8r	2ryy	.	.	.	.	16B-/LL	16G\LL	la	.	.
.	.	.	.	.	.	16A/JJ	16F\JJ	.	.	.
8r	.	.	.	.	.	8B-/	8G\	la	.	.
4r	.	.	.	.	.	16G/LL	16E\LL	la	.	.
.	.	.	.	.	.	16A/JJ	16F\JJ	.	.	.
.	.	.	.	.	.	8B-/	8D\	la	.	.
8C/	8C\	la	.	.	.	8A/	8E\	la	.	.
=24	=24	=24	=24	=24	=24	=24	=24	=24	=24	=24
8C/	4FF\	la	.	.	.	4F/	4F\	la	.	.
(<16C/LL	.	la	.	.	.	.	.	.	.	.
16D/JJ)	.	.	.	.	.	.	.	.	.	.
8C/	8r	la	.	.	.	8r	8ryy	.	.	.
16E/LL	4r	la	.	.	.	4.c/	(4B-\	la	.	.
16F/JJ	.	.	.	.	.	.	.	.	.	.
8G/	.	la	.	.	.	.	.	.	.	.
!LO:TX:a:t=P:problem:dwie oddzielne nuty	!	!	!	!	!	!	!	!	!	!
8E/	8E\	la	.	.	.	.	8G\)	.	.	.
!!LO:LB:g=original
=25	=25	=25	=25	=25	=25	=25	=25	=25	=25	=25
*	*	*below	*	*	*	*	*	*above	*	*
4.F/	8D\	O	.	.	.	(16A/LL	(16F\LL	la	.	.
!	!	!	!	!	!	!	!	!	!	!LO:HP:b
.	.	.	.	.	.	16B-/JJ)	16G\JJ)	.	.	<
.	(>16D\LL	lu-	.	.	.	4c/	4A\	la	.	.
.	16E\JJ)	.	.	.	.	.	.	.	.	.
.	8D\	-ba	.	.	.	.	.	.	.	[
!	!	!	!	!	!	!	!	!	!	!LO:HP:b
16B-/LL	4.C\	pójdź	.	.	.	4.e/	4.c\	la	.	>
16A/JJ	.	.	.	.	.	.	.	.	.	.
8G/	.	.	.	.	.	.	.	.	.	.
8B-/	.	.	.	.	.	.	.	.	.	]
=26	=26	=26	=26	=26	=26	=26	=26	=26	=26	=26
*	*	*	*	*	*	*	*	*^	*	*
*	*	*	*	*	*	*	*	*above	*below	*	*
!	!	!	!	!	!LO:DY:b:rj	!	!	!	!	!	!LO:DY:rj
8A/	8F\	pójdź	.	.	p	16f/	8c\	Do	la	.	p
.	.	.	.	.	.	16e/	.	mnie	.	.	.
8r	8ryy	.	.	.	.	[4f/	8r	pojdź	.	.	.
8A/	8F\	.	.	.	.	.	8c\	.	la	.	.
8A/	8D\	.	.	.	.	4.f/]	8d\	.	la	.	.
8r	8ryy	.	.	.	.	.	8r	.	.	.	.
8A/	8D\	.	.	.	.	.	8d\	.	la	.	.
=27	=27	=27	=27	=27	=27	=27	=27	=27	=27	=27	=27
8A/	8AA\	.	.	.	.	16f/	8c\	Do	la	.	.
.	.	.	.	.	.	16e/	.	mnie	.	.	.
8r	8ryy	.	.	.	.	[4f/	8r	pójdź.	.	.	.
8A/	8AA\	.	.	.	.	.	8c\	.	la	.	.
8B-/	8GG\	.	.	.	.	4.f/]	8d\	.	la	.	.
8r	8r	.	.	.	.	.	8r	.	.	.	.
8B-/	8GG\	.	.	.	.	.	8d\	.	la	.	.
*	*	*	*	*	*	*	*	*v	*v	*	*
=28	=28	=28	=28	=28	=28	=28	=28	=28	=28	=28
.	.	.	.	.	.	(>16qqf/	.	.	.	.
2.c 2.A/	8FF\	la	.	.	.	2.a/)	2.f\	la!	.	.
.	(>16C\LL	la	.	.	.	.	.	.	.	.
.	16D\JJ)	.	.	.	<	.	.	.	.	.
.	8C\	la	.	.	.	.	.	.	.	.
.	8FF\	la	.	.	[	.	.	.	.	.
.	(>16C\LL	la	.	.	>	.	.	.	.	.
.	16D\JJ)	.	.	.	.	.	.	.	.	.
.	8C\	la	.	.	]]	.	.	.	.	.
!!LO:LB:g=original
=29	=29	=29	=29	=29	=29	=29	=29	=29	=29	=29
[4.AA/	[4.FF\	.	.	.	.	[4.F/	[4.C\	la!	.	.
8AA;/]	8FF;\]	.	.	.	.	8F;/]	8C;\]	.	.	.
8r	8ryy	.	.	.	.	8r	8ryy	.	.	.
*v	*v	*	*	*	*	*	*	*	*	*
*	*	*	*	*	*v	*v	*	*	*
=:|!	=:|!	=:|!	=:|!	=:|!	=:|!	=:|!	=:|!	=:|!
*-	*-	*-	*-	*-	*-	*-	*-	*-
!!!system-decoration: {(s1,s2)}
!!!RDF**kern: > = above
!!!RDF**kern: < = below
!!!ENC: Marta Lawrence
!!!END: 2021-06-02
!!!ENC: Tomasz Grochalski
!!!END: 2021-05-23
